packages/core/src/svgs/tokens/mono/BLUR.svg

<svg width="24" height="24" viewBox="0 0 24 24" fill="none" xmlns="http://www.w3.org/2000/svg">
<path fill-rule="evenodd" clip-rule="evenodd" d="M9.82021 2H2.3335V11.3333H9.82021C10.3531 11.0604 10.8046 10.6516 11.1289 10.1482C11.4531 9.64487 11.6387 9.06481 11.6668 8.46666C11.6668 7.62667 11.1535 6.88666 10.9001 6.61999C11.5134 6.23333 11.6668 5.26 11.6668 4.82C11.6668 3.44666 10.9001 2.48667 9.82021 2ZM4.33348 4.00001H8.66677C8.93199 4.00001 9.18633 4.10536 9.37393 4.2929C9.56152 4.48044 9.66684 4.73479 9.66684 4.99999C9.66684 5.26521 9.56152 5.51956 9.37393 5.7071C9.18633 5.89464 8.93199 5.99999 8.66677 5.99999H4.33348V4.00001ZM8.66677 7.33332H4.33348V9.33329H8.66677C8.93199 9.33329 9.18633 9.22798 9.37393 9.04038C9.56152 8.85289 9.66684 8.59854 9.66684 8.33332C9.66684 8.06812 9.56152 7.81375 9.37393 7.62621C9.18633 7.43868 8.93199 7.33332 8.66677 7.33332Z" fill="white"/>
<path d="M13.0001 9.30669V2H15.0002V8.42666L15.8001 9.33329H21.6668V11.3333H14.9268L13.0001 9.30669ZM2.3335 19.9266V12.6667H4.33348V19.1067L5.20016 20H8.89342L9.66684 19.1067V12.6667H11.6668V19.9266L9.82675 22H4.26016L2.3335 19.9266ZM13.0001 12.6667H19.9668C20.7335 12.9666 21.6668 14.26 21.6668 15.2599C21.6668 16.4467 21.0801 16.9799 20.7802 17.2467L20.7335 17.2934C21.0468 17.4933 21.6668 18.12 21.6668 19.02V22H19.6669V19.2333C19.6267 18.92 19.2402 18.0999 18.5868 17.9999H15.0002V22H13.0001V12.6667ZM18.3334 14H15.0002V16.6666H18.3334C18.687 16.6666 19.0263 16.5262 19.2763 16.2762C19.5264 16.0261 19.6669 15.6869 19.6669 15.3334C19.6669 14.9796 19.5264 14.6405 19.2763 14.3905C19.0263 14.1404 18.687 14 18.3334 14Z" fill="white"/>
</svg>

<svg xmlns="http://www.w3.org/2000/svg" width="24" height="24" fill="none" viewBox="0 0 24 24">
    <path fill="#fff" fill-rule="evenodd" d="M9.82 2H2.334v9.333H9.82a3.4 3.4 0 0 0 1.847-2.866c0-.84-.514-1.58-.767-1.847.613-.387.767-1.36.767-1.8 0-1.373-.767-2.333-1.847-2.82M4.333 4h4.334a1 1 0 0 1 0 2H4.333zm4.334 3.333H4.333v2h4.334a1 1 0 1 0 0-2" clip-rule="evenodd"/>
    <path fill="#fff" d="M13 9.307V2h2v6.427l.8.906h5.867v2h-6.74zM2.334 19.927v-7.26h2v6.44L5.2 20h3.693l.774-.893v-6.44h2v7.26L9.827 22H4.26zM13 12.667h6.967c.767.3 1.7 1.593 1.7 2.593 0 1.187-.587 1.72-.887 1.987l-.047.046c.314.2.934.827.934 1.727V22h-2v-2.767c-.04-.313-.427-1.133-1.08-1.233H15v4h-2zM18.333 14H15v2.667h3.333a1.334 1.334 0 1 0 0-2.667"/>
</svg>
